images/ccc.svg

<?xml version="1.0" encoding="UTF-8" standalone="no"?>
<!-- Created with Inkscape (http://www.inkscape.org/) -->
<svg
   xmlns:dc="http://purl.org/dc/elements/1.1/"
   xmlns:cc="http://web.resource.org/cc/"
   xmlns:rdf="http://www.w3.org/1999/02/22-rdf-syntax-ns#"
   xmlns:svg="http://www.w3.org/2000/svg"
   xmlns="http://www.w3.org/2000/svg"
   xmlns:sodipodi="http://sodipodi.sourceforge.net/DTD/sodipodi-0.dtd"
   xmlns:inkscape="http://www.inkscape.org/namespaces/inkscape"
   id="svg2"
   sodipodi:version="0.32"
   inkscape:version="0.45.1"
   width="930"
   height="676.28998"
   version="1.0"
   sodipodi:docbase="/home/butze/Desktop"
   sodipodi:docname="Logo CCC.svg"
   inkscape:output_extension="org.inkscape.output.svg.inkscape">
  <metadata
     id="metadata7">
    <rdf:RDF>
      <cc:Work
         rdf:about="">
        <dc:format>image/svg+xml</dc:format>
        <dc:type
           rdf:resource="http://purl.org/dc/dcmitype/StillImage" />
      </cc:Work>
    </rdf:RDF>
  </metadata>
  <defs
     id="defs5" />
  <sodipodi:namedview
     inkscape:window-height="753"
     inkscape:window-width="1280"
     inkscape:pageshadow="2"
     inkscape:pageopacity="0.0"
     guidetolerance="10.0"
     gridtolerance="10.0"
     objecttolerance="10.0"
     borderopacity="1.0"
     bordercolor="#666666"
     pagecolor="#ffffff"
     id="base"
     width="930px"
     height="676.29px"
     inkscape:zoom="0.73353293"
     inkscape:cx="496.5"
     inkscape:cy="334"
     inkscape:window-x="0"
     inkscape:window-y="24"
     inkscape:current-layer="svg2" />
  <path
     style="fill:#000000"
     d="M 767.63859,656.71445 C 747.93235,643.42234 737.57479,621.93194 735.65115,590.34525 C 734.21766,566.80678 736.57075,549.06849 746.69499,507.09375 C 755.73686,469.60653 756.94557,462.10422 757.52167,439.89442 L 758.02251,420.58611 L 755.22424,415.44479 C 753.68521,412.61706 752.15782,410.33291 751.83005,410.36891 C 750.81441,410.48045 738.4867,425.10563 730.99679,435.0848 C 714.66445,456.84518 705.39516,478.30921 703.7073,498.27658 L 703.05422,506.00252 L 697.78406,507.0966 C 687.16728,509.30064 686.91346,509.22816 685.41648,503.56494 C 683.41592,495.99668 684.36072,477.09283 687.15494,468.78093 C 690.94455,457.50806 699.45013,441.71826 711.6078,423.38651 C 725.10431,403.03601 733.90324,386.96462 737.14312,376.74589 C 739.79488,368.38209 740.11375,368.18833 752.69531,367.29526 L 761.42731,366.67544 L 764.5492,374.62626 C 771.98429,393.56192 774.72098,406.87798 775.61133,428.45164 C 776.6285,453.09834 774.02866,475.1008 763.75754,528.77074 C 754.85528,575.28784 754.96438,574.22439 757.61049,588.69146 C 762.18038,613.6765 768.46415,628.14962 780.25413,640.84555 C 783.09537,643.9051 783.1833,644.28447 782.47413,650.42375 C 782.06799,653.93961 781.34936,657.83706 780.87717,659.08475 C 779.52626,662.65429 775.33114,661.90318 767.63859,656.71445 z M 677.25695,556.76106 L 672.8478,556.36905 L 673.3898,552.32807 C 674.22143,546.12786 678.20531,540.97372 684.57488,537.85738 C 689.51558,535.44012 691.8118,535.05631 706.05123,534.26761 C 714.82051,533.78191 723.69677,533.36724 725.77625,533.34615 L 729.55712,533.30779 L 729.55712,542.86679 C 729.55712,554.1655 732.44978,552.59918 706.30295,555.45852 C 687.91671,557.46917 686.12517,557.54952 677.25695,556.76106 z M 768.2731,543.8509 C 767.43924,540.52856 768.50843,533.92267 770.50488,530.06195 C 772.89495,525.44007 779.65074,518.52914 788.03459,512.1297 C 796.6751,505.53435 804.17304,497.83975 806.67623,492.99911 C 812.06604,482.57636 815.71707,448.10307 813.32881,430.18501 C 810.07563,405.77789 797.44466,378.60621 780.97515,360.58593 C 778.20351,357.55331 775.9358,354.62453 775.9358,354.07751 C 775.9358,353.53051 780.77462,348.60337 786.68873,343.12832 C 794.2696,336.11027 797.58349,333.61984 797.92247,334.68605 C 799.25683,338.88317 816.08259,370.2716 819.86217,375.61451 C 828.03984,387.17466 838.8938,395.41409 849.55364,398.15381 C 852.03973,398.79277 855.78437,399.97302 857.87507,400.77658 C 863.37839,402.89179 870.93468,402.58082 883.62112,399.71703 C 902.6004,395.43271 908.6423,396.65024 912.99209,405.63568 C 916.59907,413.08671 915.87614,414.40156 906.42998,417.57063 C 889.86567,423.12776 868.03961,423.36773 846.16472,418.23321 C 839.42601,416.65148 836.96278,416.42437 836.0824,417.3036 C 834.75986,418.62441 834.68839,427.31415 835.88293,441.55866 C 836.55304,449.54954 836.3232,453.02955 834.49607,462.55762 C 828.94214,491.52025 818.08978,512.71676 800.28762,529.37261 C 793.26557,535.9425 790.71255,537.67561 786.09885,539.00464 C 783.00455,539.896 777.87317,541.92986 774.6958,543.52432 L 768.91874,546.42335 L 768.2731,543.8509 z M 711.17104,365.94558 C 709.65388,365.48875 706.81823,364.12963 704.86959,362.9253 C 701.96242,361.12857 701.32662,360.13152 701.32662,357.36929 L 701.32662,354.00296 L 708.13219,353.3367 C 725.1331,351.67234 738.86066,346.0582 752.38162,335.24009 C 766.80592,323.69923 779.29934,307.06449 799.62926,272.33083 C 806.17217,261.15226 810.29951,255.09299 811.38636,255.07045 C 813.42437,255.02818 818.05381,260.33077 818.89097,263.6663 C 820.24004,269.04144 812.49291,294.92694 805.09863,309.75064 C 790.81624,338.38328 766.84109,357.86869 737.11886,365.00008 C 728.84924,366.98425 716.1566,367.44674 711.17104,365.94558 z M 208.80522,351.83443 L 45.471616,351.32188 L 42.188122,348.97991 C 38.058137,346.03417 31.751543,333.22384 28.946692,322.08315 C 24.105544,302.85441 21.301153,281.80609 19.744904,253.01925 C 19.160325,242.20596 17.738163,218.84018 16.584545,201.09529 C 14.29438,165.86815 14.45912,143.82021 17.258786,110.85852 C 21.483662,61.117196 29.163428,31.283773 39.48376,24.521631 C 42.322521,22.661603 72.086601,20.850599 168.68806,16.660151 C 259.55856,12.718307 357.73415,15.959154 412.92191,24.722488 C 425.36788,26.698801 427.65504,28.448297 433.63068,40.563036 C 439.67073,52.808358 443.13234,66.726833 444.03303,82.388784 C 445.01299,99.429347 444.61215,103.46123 441.86477,104.19826 C 438.35207,105.14062 427.11266,104.89355 425.12597,103.8303 C 422.25421,102.29338 420.1937,95.765365 418.52047,82.903066 C 414.97069,55.615504 410.14835,49.200031 389.52369,44.326748 C 366.48638,38.883394 331.45203,36.851085 261.73741,36.913983 C 193.98623,36.975111 141.65741,39.060008 89.152067,43.790168 C 76.176902,44.959088 72.468702,45.65902 68.442826,47.699086 C 58.010575,52.985508 50.217693,65.335509 45.442875,84.148944 C 41.784244,98.564454 41.044675,108.02834 39.960658,154.3021 C 38.402141,220.83102 40.934452,253.04678 50.431071,287.50541 C 56.169989,308.32916 60.939133,315.39802 73.325619,321.43986 C 87.099067,328.15823 81.705064,327.91887 218.38342,327.87701 C 336.84686,327.84073 375.96503,327.09878 391.33906,324.5966 C 405.64601,322.26808 413.84593,307.43028 418.55366,275.35165 C 420.7497,260.38771 421.01283,259.4836 423.9305,256.87666 C 429.84777,251.58959 437.60286,252.22587 440.90238,258.26915 C 443.8673,263.69959 443.24726,281.25826 439.45001,299.39793 C 434.55423,322.78536 430.06758,338.61726 427.45595,341.72101 C 422.35898,347.77841 407.33137,351.39715 384.74173,352.00683 C 377.81013,352.1939 298.6387,352.11633 208.80522,351.83443 z M 668.55908,335.28522 C 661.98991,333.66178 658.03993,331.53206 653.29061,327.05288 L 649.4205,323.4029 L 651.78032,321.49203 C 655.43364,318.53375 663.3254,316.55232 677.63317,315.00101 C 684.84203,314.21939 692.78186,312.91689 695.27723,312.10655 C 722.70078,303.20121 739.8011,292.2409 761.9677,269.3618 C 772.81535,258.16547 795.14351,230.47208 796.79685,226.16356 C 797.13204,225.29008 798.94654,224.78875 801.7728,224.78875 C 806.97405,224.78875 806.96541,224.18923 801.98304,239.37524 C 790.73305,273.66464 767.51951,302.04341 734.35405,322.05233 C 726.89639,326.55158 725.48397,326.9835 702.70105,331.73211 C 677.06525,337.07535 676.17691,337.1678 668.55908,335.28522 z M 181.43632,314.03585 C 182.4078,311.50418 219.40254,260.14983 227.63242,249.9086 C 244.57606,228.82396 269.33076,202.86583 278.69337,196.36534 C 285.66089,191.52778 297.97864,187.55113 310.01435,186.25371 C 324.34808,184.70858 442.19291,184.76467 533.45597,186.36008 C 610.88112,187.71358 608.75869,187.53548 630.84877,194.53272 C 637.68992,196.69972 643.47878,198.28117 643.7129,198.04704 C 643.94703,197.81292 642.90144,195.99938 641.38937,194.01695 C 637.83222,189.35329 629.92963,184.16538 621.66602,181.06893 C 607.86378,175.89709 603.18523,175.57697 524.38188,174.4123 C 453.3219,173.36206 421.35701,172.60803 336.34658,169.97658 L 296.52141,168.74382 L 290.60953,165.79551 C 280.19619,160.6023 271.87335,151.44523 230.81091,100.00303 C 209.00355,72.683207 191.16115,50.087036 191.16115,49.789324 C 191.16115,48.774246 213.84108,50.624353 215.28039,51.756841 C 216.06909,52.37742 226.66268,66.194203 238.82172,82.460803 C 265.00816,117.49357 272.82739,126.9776 284.87283,138.31667 C 296.80146,149.54577 300.98735,152.30999 308.43743,153.8779 C 322.79378,156.89928 361.82845,157.6053 449.10154,156.42211 C 550.27992,155.0504 584.19349,155.77977 599.99929,159.66745 C 612.62067,162.77186 628.11913,168.15374 637.805,172.79557 C 641.89299,174.75468 645.41429,176.18101 645.63013,175.96518 C 646.57094,175.02437 642.62298,169.40036 637.95975,165.03844 C 623.33289,151.35673 601.54914,142.83328 574.28937,140.12578 C 563.36811,139.04105 500.70351,138.54068 459.85502,139.21202 C 447.10089,139.42163 421.69344,139.58261 403.39402,139.56973 C 373.50538,139.54872 368.85938,139.31902 357.70104,137.31071 C 342.92137,134.65061 326.39608,129.34638 316.67236,124.14146 C 310.84173,121.02044 309.24471,119.59515 307.40067,115.86681 C 302.09594,105.14151 301.5385,75.939728 306.19359,52.633109 L 307.25082,47.33989 L 315.24519,47.33989 C 319.64209,47.33989 323.31161,47.453316 323.39966,47.591948 C 323.48772,47.73058 323.8466,58.959765 324.19717,72.545694 C 324.89489,99.585391 325.23081,101.26531 331.32897,108.21071 C 335.77493,113.27438 338.57357,114.55161 347.99878,115.81836 C 367.96137,118.50136 383.25241,118.94113 455.97576,118.92383 C 500.85539,118.91314 537.92739,119.34276 545.2043,119.95786 C 579.33532,122.84289 606.64835,129.66052 630.42737,141.23048 C 641.95736,146.84054 643.24207,147.77338 651.46499,156.50629 C 666.93556,172.93634 681.91612,194.89384 690.48431,213.69819 L 694.38921,222.26817 L 694.02413,216.12458 C 693.20992,202.42301 673.03251,169.02067 641.44961,129.09098 C 635.56502,121.65121 630.75037,115.21165 630.75037,114.78084 C 630.75037,113.33057 635.20997,110.85852 637.82627,110.85852 C 642.43172,110.85852 654.30833,118.87544 659.7058,125.62759 C 687.24585,160.07974 704.45072,188.13935 712.4703,211.68173 C 714.26481,216.94974 716.80259,222.38468 718.10981,223.75936 L 720.48656,226.25879 L 723.53643,223.20893 L 726.5863,220.15906 L 723.97795,211.13129 C 718.15306,190.97074 711.79921,178.50442 687.30557,139.17963 C 668.61685,109.1747 668.50017,108.84205 676.66392,108.84205 C 680.1978,108.84205 682.35134,109.76631 688.38719,113.87343 C 692.45398,116.6407 696.5012,119.47635 697.38104,120.17488 C 699.95837,122.22116 720.15227,156.46324 727.15757,170.6659 C 730.69773,177.84326 735.22127,188.98718 737.2099,195.43017 C 742.48115,212.50856 742.49863,212.52769 748.23619,207.49006 C 751.90764,204.26648 751.96957,204.09183 751.3829,198.6156 C 750.01453,185.8426 742.67433,162.91857 733.97041,144.23496 C 731.5431,139.02458 729.55712,134.15442 729.55712,133.41237 C 729.55712,132.67033 730.87084,130.5929 732.47649,128.79586 C 735.28715,125.6502 735.50304,125.5839 738.27382,127.01555 C 742.96134,129.43756 751.00065,138.22586 754.42771,144.67443 C 756.18419,147.97952 760.21965,159.4175 763.3954,170.09215 C 766.57115,180.76681 769.53204,189.50062 769.97513,189.50062 C 770.41824,189.50062 772.28094,187.61727 774.11447,185.31539 C 782.5755,174.6931 785.64353,173.21436 789.87531,177.71888 C 792.61196,180.63191 792.65877,184.44173 790.05105,192.0212 C 787.35653,199.85297 787.46121,202.02272 790.60261,203.45403 C 792.01502,204.09758 793.82984,204.62411 794.63553,204.62411 C 796.61653,204.62411 796.47794,207.24417 794.13701,214.04817 C 787.21212,234.17572 772.27978,251.93401 748.71353,268.06803 C 726.32712,283.39431 697.28192,292.97409 669.73654,294.11647 C 656.07298,294.68312 648.12338,293.09715 641.33681,288.45061 C 636.12234,284.88044 635.93545,281.74814 640.74359,278.50794 C 645.99633,274.96812 652.939,273.31452 667.43353,272.15095 C 712.44698,268.53744 746.51066,252.18028 771.23725,222.30506 C 775.11793,217.61634 775.20543,217.3857 772.40699,219.22192 C 741.70171,239.36928 708.2462,254.07865 682.89898,258.57587 C 675.29461,259.92506 669.6482,260.20744 658.1973,259.81121 C 642.46895,259.26697 633.07949,257.378 622.21121,252.57152 C 616.20113,249.91358 615.43445,248.53642 615.87506,241.19014 L 616.13101,236.92278 L 533.45597,236.41437 C 487.9847,236.13475 440.13788,235.9075 427.1297,235.90939 C 397.04609,235.91372 367.78945,237.84873 342.90009,241.48026 C 331.15233,243.19434 329.09572,244.72427 325.16775,254.67154 C 322.52137,261.37329 322.00244,274.35442 323.63317,293.05892 C 324.64856,304.70543 323.41234,311.5634 319.84745,314.06035 C 318.54884,314.96992 315.32918,315.52964 311.3956,315.52964 C 303.84388,315.52964 303.84677,315.53392 302.17063,301.86673 C 299.71566,281.84887 301.23052,260.08913 306.09724,245.46465 C 308.04872,239.60046 308.88419,238.46495 313.87894,234.88828 C 324.40681,227.34945 341.99469,222.3125 366.58209,219.79477 C 372.60714,219.17781 397.76727,218.7328 425.05955,218.76048 C 451.40592,218.7872 498.59634,218.51279 529.92716,218.15069 C 566.40258,217.72913 597.01472,217.89943 615.03454,218.62417 C 630.51278,219.24669 643.37223,219.5606 643.61107,219.32175 C 644.61458,218.31824 632.82698,212.65512 625.77703,210.75373 C 611.89598,207.00999 605.53354,206.61226 544.54652,205.67584 C 511.27486,205.16498 457.28403,204.21477 424.5669,203.56426 C 334.18729,201.76725 325.9435,201.79503 318.19841,203.92274 C 304.51399,207.68207 292.54537,213.44152 282.40616,221.1464 C 272.16218,228.9309 260.35048,242.19516 232.25152,277.46888 L 201.93242,315.52964 L 191.39776,315.52964 C 182.50599,315.52964 180.95249,315.29668 181.43632,314.03585 z "
     id="path2161" />
</svg>

<svg xmlns="http://www.w3.org/2000/svg" width="930" height="676.29" version="1.0"><path d="M767.639 656.714c-19.707-13.292-30.064-34.782-31.988-66.369-1.433-23.538.92-41.277 11.044-83.251 9.042-37.487 10.25-44.99 10.827-67.2l.5-19.308-2.798-5.141c-1.539-2.828-3.066-5.112-3.394-5.076-1.016.111-13.343 14.737-20.833 24.716-16.333 21.76-25.602 43.224-27.29 63.192l-.653 7.726-5.27 1.094c-10.617 2.204-10.87 2.131-12.368-3.532-2-7.568-1.055-26.472 1.739-34.784 3.79-11.273 12.295-27.063 24.453-45.394 13.496-20.351 22.295-36.422 25.535-46.641 2.652-8.364 2.97-8.558 15.552-9.45l8.732-.62 3.122 7.95c7.435 18.936 10.172 32.252 11.062 53.826 1.018 24.646-1.582 46.649-11.853 100.319-8.903 46.517-8.794 45.453-6.148 59.92 4.57 24.986 10.854 39.459 22.644 52.155 2.841 3.06 2.93 3.438 2.22 9.578-.406 3.516-1.125 7.413-1.597 8.66-1.35 3.57-5.546 2.82-13.238-2.37zm-90.382-99.953l-4.41-.392.543-4.04c.831-6.201 4.815-11.355 11.185-14.472 4.94-2.417 7.237-2.8 21.476-3.59 8.77-.485 17.646-.9 19.725-.92l3.781-.04v9.56c0 11.298 2.893 9.732-23.254 12.592-18.386 2.01-20.178 2.09-29.046 1.302zm91.016-12.91c-.834-3.322.235-9.928 2.232-13.789 2.39-4.622 9.146-11.533 17.53-17.932 8.64-6.596 16.138-14.29 18.641-19.13 5.39-10.424 9.041-44.897 6.653-62.815-3.253-24.407-15.884-51.579-32.354-69.6-2.771-3.032-5.04-5.96-5.04-6.507 0-.547 4.84-5.475 10.754-10.95 7.58-7.018 10.894-9.508 11.233-8.442 1.335 4.197 18.16 35.586 21.94 40.929 8.178 11.56 19.032 19.8 29.692 22.539 2.486.639 6.23 1.819 8.321 2.623 5.503 2.115 13.06 1.804 25.746-1.06 18.98-4.284 25.021-3.067 29.371 5.919 3.607 7.45 2.884 8.766-6.562 11.935-16.564 5.557-38.39 5.797-60.265.662-6.739-1.582-9.202-1.809-10.083-.93-1.322 1.321-1.394 10.011-.2 24.256.671 7.99.441 11.47-1.386 20.999-5.554 28.962-16.406 50.159-34.208 66.815-7.022 6.57-9.575 8.303-14.19 9.632-3.093.891-8.225 2.925-11.402 4.52l-5.777 2.898-.646-2.572zm-57.102-177.905c-1.517-.457-4.353-1.816-6.301-3.02-2.908-1.797-3.543-2.794-3.543-5.557v-3.366l6.805-.666c17.001-1.665 30.729-7.279 44.25-18.097 14.424-11.54 26.917-28.176 47.247-62.91 6.543-11.178 10.67-17.237 11.757-17.26 2.038-.042 6.668 5.26 7.505 8.596 1.349 5.375-6.398 31.26-13.792 46.085-14.283 28.632-38.258 48.118-67.98 55.25-8.27 1.983-20.962 2.446-25.948.945zm-502.366-14.112l-163.333-.512-3.284-2.342c-4.13-2.946-10.436-15.756-13.241-26.897-4.841-19.229-7.646-40.277-9.202-69.064-.585-10.813-2.007-34.179-3.16-51.924-2.29-35.227-2.126-57.275.674-90.236 4.225-49.742 11.904-79.575 22.225-86.337 2.839-1.86 32.603-3.671 129.204-7.862 90.87-3.942 189.046-.7 244.234 8.062 12.446 1.977 14.733 3.726 20.709 15.841 6.04 12.245 9.501 26.164 10.402 41.826.98 17.04.58 21.072-2.168 21.81-3.513.942-14.752.695-16.739-.369-2.872-1.537-4.932-8.065-6.606-20.927-3.55-27.287-8.372-33.703-28.996-38.576-23.038-5.444-58.072-7.476-127.787-7.413-67.75.061-120.08 2.146-172.585 6.876-12.975 1.17-16.683 1.869-20.71 3.91-10.431 5.286-18.224 17.636-23 36.449-3.658 14.415-4.397 23.88-5.481 70.153-1.559 66.529.973 98.745 10.47 133.203 5.739 20.824 10.508 27.893 22.895 33.935 13.773 6.718 8.38 6.479 145.057 6.437 118.464-.036 157.582-.778 172.956-3.28 14.307-2.329 22.507-17.167 27.215-49.245 2.196-14.964 2.459-15.868 5.377-18.475 5.917-5.287 13.672-4.651 16.971 1.392 2.965 5.43 2.345 22.99-1.452 41.129-4.896 23.387-9.382 39.22-11.994 42.323-5.097 6.057-20.125 9.676-42.714 10.286-6.932.187-86.103.11-175.937-.173zm459.754-16.549c-6.57-1.623-10.52-3.753-15.268-8.232l-3.87-3.65 2.36-1.911c3.653-2.958 11.544-4.94 25.852-6.491 7.209-.782 15.149-2.084 17.644-2.894 27.424-8.906 44.524-19.866 66.69-42.745 10.848-11.197 33.177-38.89 34.83-43.198.335-.874 2.15-1.375 4.976-1.375 5.201 0 5.192-.6.21 14.586-11.25 34.29-34.463 62.668-67.629 82.677-7.458 4.5-8.87 4.931-31.653 9.68-25.636 5.343-26.524 5.436-34.142 3.553zm-487.123-21.25c.972-2.53 37.967-53.885 46.196-64.126 16.944-21.085 41.699-47.043 51.061-53.544 6.968-4.837 19.286-8.814 31.321-10.111 14.334-1.545 132.179-1.49 223.442.106 77.425 1.354 75.303 1.175 97.393 8.173 6.84 2.167 12.63 3.748 12.864 3.514.234-.234-.812-2.048-2.324-4.03-3.557-4.664-11.46-9.852-19.723-12.948-13.802-5.172-18.48-5.492-97.284-6.657-71.06-1.05-103.025-1.804-188.035-4.435l-39.826-1.233-5.911-2.948c-10.414-5.194-18.737-14.35-59.8-65.793-21.806-27.32-39.649-49.916-39.649-50.214 0-1.015 22.68.835 24.12 1.968.788.62 11.382 14.437 23.54 30.704 26.187 35.033 34.006 44.517 46.052 55.856 11.928 11.229 16.114 13.993 23.564 15.56 14.357 3.022 53.391 3.728 140.665 2.545 101.178-1.372 135.091-.642 150.897 3.245 12.622 3.105 28.12 8.487 37.806 13.129 4.088 1.959 7.61 3.385 7.825 3.17.94-.942-3.007-6.566-7.67-10.928-14.627-13.681-36.41-22.205-63.67-24.912-10.922-1.085-73.586-1.585-114.435-.914-12.754.21-38.162.37-56.461.358-29.889-.021-34.535-.251-45.693-2.26-14.78-2.66-31.305-7.964-41.029-13.169-5.83-3.12-7.427-4.546-9.271-8.274-5.305-10.725-5.863-39.927-1.207-63.234l1.057-5.293h7.994c4.397 0 8.067.113 8.155.252.088.139.447 11.368.797 24.954.698 27.04 1.034 28.72 7.132 35.665 4.446 5.063 7.245 6.34 16.67 7.607 19.962 2.683 35.253 3.123 107.977 3.106 44.88-.01 81.951.419 89.228 1.034 34.131 2.885 61.444 9.703 85.223 21.272 11.53 5.61 12.815 6.543 21.038 15.276 15.47 16.43 30.451 38.388 39.02 57.192l3.904 8.57-.365-6.143c-.814-13.702-20.991-47.104-52.574-87.034-5.885-7.44-10.7-13.88-10.7-14.31 0-1.45 4.46-3.922 7.076-3.922 4.606 0 16.482 8.016 21.88 14.769 27.54 34.452 44.745 62.511 52.764 86.054 1.795 5.268 4.333 10.703 5.64 12.077l2.377 2.5 3.05-3.05 3.05-3.05-2.61-9.028c-5.824-20.16-12.178-32.627-36.671-71.951-18.69-30.005-18.806-30.338-10.642-30.338 3.534 0 5.687.924 11.723 5.031 4.067 2.768 8.114 5.603 8.994 6.302 2.577 2.046 22.771 36.288 29.777 50.49 3.54 7.178 8.063 18.322 10.052 24.765 5.271 17.079 5.289 17.098 11.026 12.06 3.672-3.224 3.734-3.398 3.147-8.874-1.368-12.773-8.709-35.697-17.413-54.381-2.427-5.21-4.413-10.08-4.413-10.823 0-.742 1.314-2.82 2.92-4.616 2.81-3.146 3.026-3.212 5.797-1.78 4.687 2.422 12.727 11.21 16.154 17.658 1.756 3.306 5.792 14.743 8.967 25.418 3.176 10.675 6.137 19.409 6.58 19.409.443 0 2.306-1.884 4.14-4.186 8.46-10.622 11.529-12.1 15.76-7.596 2.737 2.913 2.784 6.723.176 14.302-2.694 7.832-2.59 10.002.552 11.433 1.412.644 3.227 1.17 4.033 1.17 1.98 0 1.842 2.62-.499 9.424-6.925 20.128-21.857 37.886-45.423 54.02-22.387 15.326-51.432 24.906-78.977 26.048-13.664.567-21.614-1.019-28.4-5.665-5.215-3.57-5.402-6.703-.593-9.943 5.252-3.54 12.195-5.193 26.69-6.357 45.013-3.614 79.077-19.97 103.803-49.846 3.88-4.689 3.968-4.92 1.17-3.083-30.705 20.147-64.16 34.857-89.508 39.354-7.604 1.35-13.25 1.631-24.702 1.235-15.728-.544-25.118-2.433-35.986-7.24-6.01-2.657-6.777-4.035-6.336-11.38l.256-4.268-82.675-.509c-45.471-.28-93.318-.506-106.326-.505-30.084.005-59.34 1.94-84.23 5.571-11.748 1.714-13.804 3.244-17.732 13.192-2.647 6.701-3.166 19.682-1.535 38.387 1.016 11.646-.22 18.504-3.786 21.001-1.298.91-4.518 1.47-8.451 1.47-7.552 0-7.55.004-9.225-13.663-2.455-20.018-.94-41.778 3.926-56.402 1.952-5.865 2.787-7 7.782-10.577 10.528-7.539 28.116-12.576 52.703-15.093 6.025-.617 31.185-1.062 58.478-1.035 26.346.027 73.536-.247 104.867-.61 36.476-.42 67.088-.25 85.108.474 15.478.623 28.337.937 28.576.698 1.004-1.004-10.784-6.667-17.834-8.568-13.881-3.744-20.243-4.142-81.23-5.078a32130.14 32130.14 0 01-119.98-2.112c-90.38-1.797-98.624-1.769-106.369.359-13.684 3.76-25.653 9.519-35.792 17.223-10.244 7.785-22.056 21.05-50.154 56.323l-30.32 38.06h-10.534c-8.892 0-10.446-.232-9.962-1.493z"/></svg>
